X:1
T:Title
%%score { 1 | ( 2 3 ) }
L:1/8
Q:1/4=100
M:2/4
K:A
V:1 treble nm="Voice"
V:2 treble-8 nm="Guitar"
V:3 treble-8 
V:1
"^Andantino grazioso" c c | B2 A A | G2 A A | G G F ^E | F2 c c | B2 A A | G2 A A | G G F ^E | %8
 F2 F A | A2 G F | E2 B B | B2 A G | E2 E E | F F B B | (c B) G E | B2 B,2 | E2 G G | F2 G G | %18
 F2 G G | F F G G | F2 A A | G2 A A | G2 A A | G G A A | B2 ^B B | c2 C2 | F2 |] %27
V:2
 [fa]2 | [dg]2 [cf]2 | [^Bf]2 [cf]2 | [Bf]2 [cg]2 | [Fa]2 [fa]2 | [dg]2 [cf]2 | [^Bf]2 [cf]2 | %7
 [Bf]2 [cg]2 | [Fa]2 z2 | (3(B,^DA (3B,DA) | (3(B,EG (3B,EG) | (3(B,^DA (3B,DA) | (3(B,EG (3B,EG) | %13
 (3(A,^DF (3A,DF) | (3(B,EG (3B,EG) | (3(B,EA (3B,^DA) | (3(B,EG) (3(B,EG) | (3(B,^DA) (3(B,EG) | %18
 (3(B,^DA) (3(B,EG) | (3(B,^DA) (3(B,EG) | (3(B,^DA) z2 | (3B,EG z2 | (3B,EG z2 | (3B,EG (3^DFB | %24
 (3GBe (3DFG | (3CFA (3C^EB | (3F,FA |] %27
V:3
 x2 | x4 | x4 | x4 | x4 | x4 | x4 | x4 | x4 | x4 | x4 | x4 | x4 | x4 | x4 | x4 | x4 | x4 | x4 | %19
 x4 | x4 | x4 | x4 | x4 | x4 | C2 C2 | x2 |] %27

